X:328
T:79th's Farewell To Gibralter 
C:Joe Buchanan's Scottish Tome - Page 102.0
I:102 0
R:March
Z:Carl Allison
L:1/16
M:2/4
K:A
|:cd | "A"e2>f2 e2c2 | "A"A2>B2 A2ag | "D"f2ec "A"efge | "E"c2B2 B2cd |
"A"e2>f2 e2c2 | A2B2 A2gg | "D"f2ec "E"efge | "A"c2"D"A2 "A"A4 :|
|:ag | "D"f2ec "A"efae | "D"faec "E"B2ag | "D"f2ec "A"efae | "E"f2B2 B2ag |
"D"f2ec "A"efae | "D"faec "E"B2ag | "D"f2ec "A"efae | "A"c2"D"A2 "A"A4 :|
|:cB | "A"A2>B2 c2g2 | "D"f2ec "E"B2cB | "A"ABcd efec | "E"f2B2 B2cB |
"A"A2>B2 c2a2 | "D"f2ec "E"B2ag | "D"f2ec "A"efae | "A"c2"D"A2 "A"A4 :|
|:cd | "A"e2>f2 e2c2 | "A"e2>f2 e2ag | "D"f2>g2 f2e2 | "D"f2>g2 f2ag |
"D"f2ed "A"c2BA | "D"BABc "A"e2ag | "D"f2ec "A"efae | "A"c2"D"A2 "A"A4 :|

